img/resume.svg

<svg width="64" height="64" xmlns="http://www.w3.org/2000/svg">

 <g>
  <title>background</title>
  <rect fill="none" id="canvas_background" height="402" width="582" y="-1" x="-1"/>
 </g>
 <g>
  <title>Layer 1</title>
  <rect fill="#326182" id="svg_2" y="19.967747" x="21.685" width="20.621" height="3"/>
  <rect fill="#326182" id="svg_3" y="27.223" x="21.685" width="20.621" height="3"/>
  <path fill="#326182" id="svg_4" d="m51.015,7.999l-38,0c-0.553,0 -1,0.447 -1,1l0,33.323c-0.011,0.096 -0.029,0.191 -0.029,0.29c0,4.912 3.681,8.972 8.428,9.589l-0.029,0.022l29.631,3.778c1.104,0 2,-0.895 2,-2l0,-45.002c-0.001,-0.553 -0.449,-1 -1.001,-1zm-4,42.207l-19.84,-11.635c-0.466,-0.296 -0.844,-0.089 -0.844,0.464l0,3.422l0,-0.014c-0.004,0.057 0,0.111 0,0.169c0,2.58 -2.087,4.679 -4.667,4.679s-4.649,-1.928 -4.649,-4.508c0,-0.091 0.009,-0.22 0,-0.308l0,-0.128l0,-29.348l30,0l0,37.207z"/>
 </g>
</svg>

<?xml version="1.0" encoding="UTF-8" standalone="no"?>
<!DOCTYPE svg PUBLIC "-//W3C//DTD SVG 1.1//EN" "http://www.w3.org/Graphics/SVG/1.1/DTD/svg11.dtd">
<svg width="100%" height="100%" viewBox="0 0 64 64" version="1.1" xmlns="http://www.w3.org/2000/svg" xmlns:xlink="http://www.w3.org/1999/xlink" xml:space="preserve" style="fill-rule:evenodd;clip-rule:evenodd;stroke-linejoin:round;stroke-miterlimit:1.41421;">
    <rect id="canvas_background" x="-1" y="-1" width="582" height="402" style="fill:none;"/>
    <g>
        <rect id="svg_2" x="21.685" y="19.968" width="20.621" height="3" style="fill:rgb(50,97,130);"/>
        <rect id="svg_3" x="21.685" y="27.223" width="20.621" height="3" style="fill:rgb(50,97,130);"/>
        <path id="svg_4" d="M51.015,7.999L13.015,7.999C12.462,7.999 12.015,8.446 12.015,8.999L12.015,42.322C12.004,42.418 11.986,42.513 11.986,42.612C11.986,47.524 15.667,51.584 20.414,52.201L20.385,52.223L50.016,56.001C51.12,56.001 52.016,55.106 52.016,54.001L52.016,8.999C52.015,8.446 51.567,7.999 51.015,7.999L51.015,7.999ZM47.015,50.206L27.175,38.571C26.709,38.275 26.331,38.482 26.331,39.035L26.331,42.457L26.331,42.443C26.327,42.5 26.331,42.554 26.331,42.612C26.331,45.192 24.244,47.291 21.664,47.291C19.084,47.291 17.015,45.363 17.015,42.783C17.015,42.692 17.024,42.563 17.015,42.475L17.015,42.347L17.015,12.999L47.015,12.999L47.015,50.206Z" style="fill:rgb(50,97,130);fill-rule:nonzero;"/>
    </g>
</svg>
